svgs/themed_icon_calendar_19.svg

<svg height="192" width="192" xmlns="http://www.w3.org/2000/svg"><path d="M146 30H46c-8.837 0-16 7.163-16 16v100c0 8.837 7.163 16 16 16h75.373a16 16 0 0 0 11.313-4.686l24.628-24.628A16 16 0 0 0 162 121.373V46c0-8.837-7.163-16-16-16Z" stroke="#000" stroke-width="12" fill="none"/><path d="M64.852 120c-3.168 0-4.752-1.536-4.752-4.608 0-3.024 1.584-4.536 4.752-4.536h7.272V81.624l-5.256 3.168c-1.392.816-2.64 1.032-3.744.648s-1.944-1.104-2.52-2.16c-.576-1.056-.744-2.184-.504-3.384.24-1.248 1.032-2.304 2.376-3.168l10.008-6.048a17.78 17.78 0 0 1 3.024-1.512c1.056-.384 2.088-.576 3.096-.576 1.44 0 2.568.384 3.384 1.152.864.768 1.296 1.896 1.296 3.384v37.728h6.552c3.12 0 4.68 1.512 4.68 4.536 0 3.072-1.56 4.608-4.68 4.608H64.852Zm47.852.792c-2.064 0-4.152-.288-6.264-.864a21.667 21.667 0 0 1-5.904-2.592c-1.2-.672-1.944-1.584-2.232-2.736-.24-1.152-.144-2.256.288-3.312.48-1.056 1.224-1.824 2.232-2.304 1.056-.48 2.304-.384 3.744.288 1.488.816 2.904 1.392 4.248 1.728 1.392.336 2.736.504 4.032.504 7.872 0 11.808-5.16 11.808-15.48v-1.368c-1.008 2.4-2.568 4.272-4.68 5.616-2.112 1.296-4.536 1.944-7.272 1.944-2.88 0-5.448-.696-7.704-2.088-2.208-1.44-3.96-3.384-5.256-5.832C98.448 91.8 97.8 88.968 97.8 85.8c0-3.36.72-6.336 2.16-8.928 1.488-2.64 3.504-4.704 6.048-6.192 2.592-1.488 5.568-2.232 8.928-2.232 6.48 0 11.472 2.232 14.976 6.696 3.552 4.416 5.328 10.68 5.328 18.792 0 8.496-1.992 15.096-5.976 19.8-3.984 4.704-9.504 7.056-16.56 7.056Zm2.88-27.288c2.208 0 4.008-.744 5.4-2.232 1.392-1.536 2.088-3.528 2.088-5.976s-.696-4.416-2.088-5.904c-1.392-1.536-3.192-2.304-5.4-2.304s-4.008.768-5.4 2.304c-1.392 1.488-2.088 3.456-2.088 5.904s.696 4.44 2.088 5.976c1.392 1.488 3.192 2.232 5.4 2.232Z"/></svg>

<?xml version="1.0" encoding="UTF-8" standalone="no"?><svg xmlns:android="http://schemas.android.com/apk/res/android" height="192" width="192" xmlns="http://www.w3.org/2000/svg">
  <path d="M146,30H46C37.163,30 30,37.163 30,46V146C30,154.837 37.163,162 46,162H121.373C125.616,162 129.686,160.314 132.686,157.314L157.314,132.686C160.314,129.686 162,125.616 162,121.373V46C162,37.163 154.837,30 146,30Z" fill="#000000" fill-opacity="0.0" stroke="#000000" stroke-width="12"/>
  <path d="M64.852,120C61.684,120 60.1,118.464 60.1,115.392C60.1,112.368 61.684,110.856 64.852,110.856H72.124V81.624L66.868,84.792C65.476,85.608 64.228,85.824 63.124,85.44C62.02,85.056 61.18,84.336 60.604,83.28C60.028,82.224 59.86,81.096 60.1,79.896C60.34,78.648 61.132,77.592 62.476,76.728L72.484,70.68C73.492,70.056 74.5,69.552 75.508,69.168C76.564,68.784 77.596,68.592 78.604,68.592C80.044,68.592 81.172,68.976 81.988,69.744C82.852,70.512 83.284,71.64 83.284,73.128V110.856H89.836C92.956,110.856 94.516,112.368 94.516,115.392C94.516,118.464 92.956,120 89.836,120H64.852ZM112.704,120.792C110.64,120.792 108.552,120.504 106.44,119.928C104.328,119.352 102.36,118.488 100.536,117.336C99.336,116.664 98.592,115.752 98.304,114.6C98.064,113.448 98.16,112.344 98.592,111.288C99.072,110.232 99.816,109.464 100.824,108.984C101.88,108.504 103.128,108.6 104.568,109.272C106.056,110.088 107.472,110.664 108.816,111C110.208,111.336 111.552,111.504 112.848,111.504C120.72,111.504 124.656,106.344 124.656,96.024V94.656C123.648,97.056 122.088,98.928 119.976,100.272C117.864,101.568 115.44,102.216 112.704,102.216C109.824,102.216 107.256,101.52 105,100.128C102.792,98.688 101.04,96.744 99.744,94.296C98.448,91.8 97.8,88.968 97.8,85.8C97.8,82.44 98.52,79.464 99.96,76.872C101.448,74.232 103.464,72.168 106.008,70.68C108.6,69.192 111.576,68.448 114.936,68.448C121.416,68.448 126.408,70.68 129.912,75.144C133.464,79.56 135.24,85.824 135.24,93.936C135.24,102.432 133.248,109.032 129.264,113.736C125.28,118.44 119.76,120.792 112.704,120.792ZM115.584,93.504C117.792,93.504 119.592,92.76 120.984,91.272C122.376,89.736 123.072,87.744 123.072,85.296C123.072,82.848 122.376,80.88 120.984,79.392C119.592,77.856 117.792,77.088 115.584,77.088C113.376,77.088 111.576,77.856 110.184,79.392C108.792,80.88 108.096,82.848 108.096,85.296C108.096,87.744 108.792,89.736 110.184,91.272C111.576,92.76 113.376,93.504 115.584,93.504Z" fill="#000000"/>
</svg>
